!!!COM: Palestrina, Giovanni Perluigi da
!!!OPR: Ecce ego Joannes
!!!OTL: Agnus I
**kern	**kern	**kern	**kern	**kern	**kern
*Ibass	*Ibarit	*Itenor	*Itenor	*Icalto	*Icant
!Bassus	!Baritone	!Tenor 2	!Tenor 1	!Altus	!Cantus
*clefF4	*clefF4	*clefGv2	*clefGv2	*clefG2	*clefG2
*k[]	*k[]	*k[]	*k[]	*k[]	*k[]
*G:mix	*G:mix	*G:mix	*G:mix	*G:mix	*G:mix
*M4/2	*M4/2	*M4/2	*M4/2	*M4/2	*M4/2
=1	=1	=1	=1	=1	=1
0r	0d	0r	0f#	0a	0dd
=2	=2	=2	=2	=2	=2
0r	1G	0r	1.g	1b	1dd
.	1d	.	.	2.a	1dd
.	.	.	2f#	.	.
.	.	.	.	4b	.
=3	=3	=3	=3	=3	=3
0r	1.c	0r	4g	4cc	1.ee
.	.	.	4f	4b	.
.	.	.	4e	4a	.
.	.	.	4d	4g	.
.	.	.	2c	4a	.
.	.	.	.	4g	.
.	2B	.	2d	[2g	2dd
=4	=4	=4	=4	=4	=4
0r	0A	0r	4e	2g]	0cc
.	.	.	4d	.	.
.	.	.	4c	4f#	.
.	.	.	4B	4e	.
.	.	.	1c	1f#	.
=5	=5	=5	=5	=5	=5
0G	1G	0d	4d	1g	2b
.	.	.	4c	.	.
.	.	.	4B	.	4g
.	.	.	4A	.	4a
.	2r	.	4G	1g	4b
.	.	.	4A	.	4cc
.	[2G	.	2B	.	2dd
=6	=6	=6	=6	=6	=6
1C	2G]	1e	1c	0g	2cc
.	2.c	.	.	.	2cc
1G	.	2.d	1r	.	1dd
.	4B	.	.	.	.
.	2B	.	.	.	.
.	.	4e	.	.	.
=7	=7	=7	=7	=7	=7
1.F	4c	4f	0r	1.a	1r
.	4B	4e	.	.	.
.	4A	4d	.	.	.
.	4G	4c	.	.	.
.	2F	4d	.	.	2r
.	.	4c	.	.	.
2E	2G	[2c	.	2g	2ee
=8	=8	=8	=8	=8	=8
0D	4A	2c]	0r	0f	1ff
.	4G	.	.	.	.
.	4F	4B	.	.	.
.	4E	4A	.	.	.
.	1F	1B	.	.	1dd
=9	=9	=9	=9	=9	=9
[0C	2G	2.c	0g	2.e	1ee
.	2.c	.	.	.	.
.	.	4d	.	4d	.
.	.	1e	.	4c	2r
.	4B	.	.	4d	.
.	4c	.	.	4e	[2gg
.	4d	.	.	4f	.
=10	=10	=10	=10	=10	=10
1C]	1e	2r	1c	2g	2gg]
.	.	2.g	.	2cc	2.ee
1E	1e	.	1g	2b	.
.	.	4f	.	.	4dd
.	.	4e	.	[2b	4cc
.	.	4d	.	.	4b
=11	=11	=11	=11	=11	=11
1.F	2r	2.c	1.f	4b]	2a
.	.	.	.	4b	.
.	2A	.	.	4a	4f
.	.	4B	.	4g	4g
.	1c	2A	.	2f	4a
.	.	.	.	.	4b
2C	.	[2G	2e	2g	[2cc
=12	=12	=12	=12	=12	=12
0G	2d	2G]	0d	[0g	2cc]
.	2.G	2.g	.	.	4b
.	.	.	.	.	4a
.	.	.	.	.	1b
.	4A	4f	.	.	.
.	2B	2d	.	.	.
=13	=13	=13	=13	=13	=13
0C	1G	1e	0c	1g]	1cc
.	2r	2r	.	2r	2r
.	2c	2g	.	2cc	2ee
=14	=14	=14	=14	=14	=14
0r	1c	1g	0r	1cc	1ee
.	1G	2g	.	2b	2dd
.	.	2e	.	2g	2gg
=15	=15	=15	=15	=15	=15
0r	0r	2d	0r	2a	2ff
.	.	2g	.	2b	2dd
.	.	[1c	.	4cc	4ee
.	.	.	.	4b	4dd
.	.	.	.	4a	4cc
.	.	.	.	4g	4b
=16	=16	=16	=16	=16	=16
0r	0r	2c]	0r	4a	4cc
.	.	.	.	4g	4b
.	.	2e	.	1g	4b
.	.	.	.	.	8a
.	.	.	.	.	8g
.	.	1d	.	.	1a
.	.	.	.	2f#	.
=17	=17	=17	=17	=17	=17
2r	2r	2r	2r	1g	2g
2G	2B	2d	2g	.	2b
1G	1B	1d	[1g	1r	1dd
=18	=18	=18	=18	=18	=18
2C	2c	2e	1g]	0r	1cc
2c	2e	2g	.	.	.
2B	2d	2g	1G	.	1r
2G	2B	2g	.	.	.
=19	=19	=19	=19	=19	=19
4A	4c	4f	1r	0r	1r
4G	4B	4e	.	.	.
4F	4A	4d	.	.	.
4E	4G	4c	.	.	.
4F	4A	4d	2r	.	2r
4E	4G	4c	.	.	.
4E	2c	[2c	2g	.	2ee
8D	.	.	.	.	.
8C	.	.	.	.	.
=20	=20	=20	=20	=20	=20
1D	1F	2c]	2f	1r	2ff
.	.	2B	2d	.	2ff
1C	1G	2c	4e	1g	2.ee
.	.	.	4d	.	.
.	.	[2e	4c	.	.
.	.	.	4B	.	4dd
=21	=21	=21	=21	=21	=21
0r	0r	4e]	4c	1g	4ee
.	.	4f	4B	.	4dd
.	.	1g	4B	.	4dd
.	.	.	8A	.	8cc
.	.	.	8G	.	8b
.	.	.	1A	2c	2cc
.	.	2f#	.	2cc	2a
=22	=22	=22	=22	=22	=22
2r	0r	1g	2G	2b	2.dd
2G	.	.	2B	2g	.
.	.	.	.	.	4ee
[1F	.	2r	4c	4a	4ff
.	.	.	4B	4g	4ee
.	.	2a	4A	4f	4dd
.	.	.	4G	4e	4cc
=23	=23	=23	=23	=23	=23
2F]	0r	2a	2A	4f	4dd
.	.	.	.	4e	4cc
2A	.	2f	2A	4d	1cc
.	.	.	.	4c	.
1G	.	1g	2B	1d	.
.	.	.	[2G	.	2b
=24	=24	=24	=24	=24	=24
1C	2r	1e	2G]	1c	2cc
.	1c	.	1g	.	1ee
1r	.	2c	.	1r	.
.	2B	2d	2g	.	2dd
=25	=25	=25	=25	=25	=25
0r	2c	2e	2.g	0r	2cc
.	2G	2d	.	.	2b
.	.	.	4f	.	.
.	2.A	4c	4e	.	2.cc
.	.	4B	4d	.	.
.	.	4A	[2c	.	.
.	4G	4B	.	.	4b
=26	=26	=26	=26	=26	=26
1r	2F	4c	2c]	0r	2a
.	.	4d	.	.	.
.	2G	1e	2B	.	1g
2r	1A	.	1c	.	.
[2c	.	2A	.	.	2f#
=27	=27	=27	=27	=27	=27
2c]	1G	2r	2d	0r	2g
2B	.	2d	1g	.	2dd
2c	1r	2e	.	.	2cc
2G	.	2B	2g	.	2b
=28	=28	=28	=28	=28	=28
2.A	0r	1c	2e	2r	1a
.	.	.	1a	1cc	.
4G	.	.	.	.	.
2F	.	1d	.	.	1r
2G	.	.	4g	2b	.
.	.	.	4f	.	.
=29	=29	=29	=29	=29	=29
2A	0r	1c	1e	2cc	0r
2E	.	.	.	2g	.
1F	.	2r	2.A	1a	.
.	.	[2f	.	.	.
.	.	.	4B	.	.
=30	=30	=30	=30	=30	=30
2C	2r	2f]	1c	[0g	2r
4C	1c	2e	.	.	1ee
4D	.	.	.	.	.
4E	.	2.g	1G	.	.
4F	.	.	.	.	.
2G	2B	.	.	.	2dd
.	.	4f	.	.	.
=31	=31	=31	=31	=31	=31
1C	2c	2e	2r	1g]	2ee
.	2G	2e	1c	.	2gg
2r	2.A	1c	.	1r	2ff
[2c	.	.	2A	.	2ee
.	4G	.	.	.	.
=32	=32	=32	=32	=32	=32
2c]	2F	1d	2a	0r	1dd
2B	2G	.	2.g	.	.
2c	1C	1g	.	.	[1ee
.	.	.	4f	.	.
2G	.	.	4e	.	.
.	.	.	4d	.	.
=33	=33	=33	=33	=33	=33
2.A	0r	1e	1c	2r	1ee]
.	.	.	.	1cc	.
4G	.	.	.	.	.
2F	.	2a	1d	.	2r
2G	.	4g	.	2b	[2gg
.	.	4f	.	.	.
=34	=34	=34	=34	=34	=34
1C	2r	4e	1c	2cc	4gg]
.	.	4d	.	.	4ff
.	1c	1e	.	2g	4ee
.	.	.	.	.	4dd
1r	.	.	1r	2a	2cc
.	2B	2d	.	4g	2dd
.	.	.	.	4f	.
=35	=35	=35	=35	=35	=35
0r	2c	1g	0r	4e	2ee
.	.	.	.	4f	.
.	2G	.	.	1g	2b
.	1A	1c	.	.	1cc
.	.	.	.	2f#	.
=36	=36	=36	=36	=36	=36
1r	1G	2d	2r	2g	2.b
.	.	2e	2g	2g	.
.	.	.	.	.	4cc
2r	1r	2.d	2f#	2a	[1dd
[2G	.	.	2g	2b	.
.	.	4c	.	.	.
=37	=37	=37	=37	=37	=37
2G]	0r	2B	1d	2g	1dd]
2F#	.	2A	.	2a	.
2G	.	2G	2.d	2b	2r
2D	.	2F#	.	[2a	[2dd
.	.	.	4c	.	.
=38	=38	=38	=38	=38	=38
1E	0r	1G	2B	4a]	2dd]
.	.	.	.	4g	.
.	.	.	4A	1g	2cc#
.	.	.	4G	.	.
1D	.	2r	1A	.	2dd
.	.	[2d	.	2f#	2a
=39	=39	=39	=39	=39	=39
2G	2r	2d]	[0G	[0g	2b
2C	1c	2e	.	.	2cc
2G	.	1d	.	.	1dd
2G	2B	.	.	.	.
=40	=40	=40	=40	=40	=40
0C	2c	1c	1G_	1g_	2.ee
.	2G	.	.	.	.
.	.	.	.	.	4dd
.	1c	1e	1G_	1g_	1cc
=41	=41	=41	=41	=41	=41
0G	0B	0d	0G]	0g]	0dd
==	==	==	==	==	==
*-	*-	*-	*-	*-	*-
!!!CDT: 1525/^1526/-1594/2/2
!!!OCY: Italia
!!!AGN: Mass (Parody)
!!!AST: renaissance, vocal
!!!ASW: Motet (Unidentified)
!!!PWK: Masses, Book 12
!!!RNB: Cadence finals: D
!!!YOR: Le Opere Complete, v. 29, p. 197
!!!YOO: Rome, Italy: Fratelli Scalera
!!!END: 1992//
!!!EED: John Miller
!!!YEC: Copyright 2000, John Miller
!!!YEN: United States of America
!!!YEM: Rights to all derivative electronic formats reserved.
!!!YEM: Refer to licensing agreement for further details.
!!!YEM: This file must be accompanied by the licensing agreement.
!!!YEM: A copy of the licensing agreement may be found at http://www.music-cog.ohio-state.edu/HumdrumDatabases/Palestrina/license.txt
!!!EMD: converted to Humdrum by Bret Aarden
